packages/tokens/icons/lvlUpDefault/size16Px.svg

<svg viewBox="0 0 16 16" fill="none" xmlns="http://www.w3.org/2000/svg" width="1em" height="1em"><path d="M7.55811 1.77351C7.75356 1.4315 8.24672 1.43152 8.44214 1.77354L9.5648 3.73834C9.75872 4.07773 9.51366 4.5 9.12278 4.5H6.87729C6.48639 4.5 6.24133 4.0777 6.43528 3.73831L7.55811 1.77351Z" stroke="currentColor"/><path d="M4.88397 6.8481C4.95326 6.64022 5.1478 6.5 5.36693 6.5L10.6331 6.5C10.8522 6.5 11.0467 6.64022 11.116 6.8481L11.7766 8.82992C11.8865 9.15957 11.6412 9.5 11.2937 9.5L4.70633 9.5C4.35884 9.5 4.11348 9.15957 4.22336 8.82992L4.88397 6.8481Z" stroke="currentColor"/><path d="M2.88397 11.8481C2.95326 11.6402 3.1478 11.5 3.36693 11.5L12.6331 11.5C12.8522 11.5 13.0467 11.6402 13.116 11.8481L13.7766 13.8299C13.8865 14.1596 13.6412 14.5 13.2937 14.5L2.70633 14.5C2.35884 14.5 2.11348 14.1596 2.22336 13.8299L2.88397 11.8481Z" stroke="currentColor"/></svg>

<svg xmlns="http://www.w3.org/2000/svg" fill="none" viewBox="0 0 16 16" width="1em" height="1em"><path stroke="currentColor" d="M7.558 1.774a.51.51 0 0 1 .884 0l1.123 1.964a.51.51 0 0 1-.442.762H6.877a.51.51 0 0 1-.442-.762l1.123-1.964ZM4.884 6.848a.51.51 0 0 1 .483-.348h5.266c.22 0 .414.14.483.348l.66 1.982c.11.33-.135.67-.482.67H4.706a.51.51 0 0 1-.483-.67l.661-1.982Zm-2 5a.51.51 0 0 1 .483-.348h9.266c.22 0 .414.14.483.348l.66 1.982c.11.33-.135.67-.482.67H2.706a.51.51 0 0 1-.483-.67l.661-1.982Z"/></svg>
